X:1
T:Solitude, 77.77
T:Solitude, 77.77
T:Lewis Thomas Downes, 1851
T:Public Domain Courtesy of the Cyber Hymnal™
C:Lewis Thomas Downes, 1851
Z:Public Domain
Z:Courtesy of the Cyber Hymnal™
%%score ( 1 2 ) ( 3 4 )
L:1/8
Q:1/4=108
M:4/4
K:Eb
V:1 treble 
V:2 treble 
V:3 bass 
V:4 bass 
V:1
 [GB]2 [^F=A]2 B2 [EG]2 | [Ge]2 (dc) [GB]4 | [FB]2 [DF][EG] [FA]2 [EG]2 | [EF]2 [Ec]2 [DB]4 | %4
 [GB]2 [^F=A]2 [GB]2 [EG]2 | [Ee]2 (fe) [Ad]4 | e2 G2 (AB) c2 | [EG]2 [DF]2 E4 |] %8
V:2
 x4 (G^F) x2 | x2 A2 x4 | x8 | x8 | x8 | x2 A2 x4 | (GF) (E_D) C2 (EF) | x4 E4 |] %8
V:3
 [E,B,]2 [E,C]2 [E,B,]2 [E,B,]2 | [E,B,]2 [E,C]2 [E,E]4 | [B,,D]2 [B,,B,]2 [D,B,]2 [E,B,]2 | %3
 [A,C]2 [F,=A,]2 [B,,B,]4 | [E,B,]2 [E,C]2 [E,B,]2 [E,B,]2 | [C,A,]2 [A,,C]2 [B,,B,]4 | %6
 [E,B,]2 [E,B,]2 [A,,C]2 (CD) | (EB,) [B,,A,]2 [E,G,]4 |] %8
V:4
 x8 | x8 | x8 | x8 | x8 | x8 | x6 A,,2 | B,,2 x6 |] %8

